X:8401
%17646
T:Tongs By the Fire
S:Trad, arr. Paddy O'Brien
R:jig
E:12
I:speed 300
M:6/8
K:Cmaj
A,/2B,/2|CEG FDB,|GcA GEC|FAF EGE|DEC B,A,G,|\
CEG FDB,|CcA GEC|FAF Edc|BAB c2:|\
B|cGE cGE|cBd cGE|BG^F GAB|cec BdB|\
(4ABcA GAB|cGE DCD |ECB, C2
%Warning : No repeat expected, found :|
:|**
\vfill\eject


